X:642
T:Reel 642
L:1/8
M: 4/4
K: D Major
dB|A>D(3DDDAGFG|A>D(3DDDD2GF|E>C(3ECEGEBE|GEBcdBcd|A>D(3DDDDEFD|ADFAd2cd|efedcded|cAGED2|FG|Addcd2cd|ecdcedcA|ABcde2cd|eaabe2cd|eaagaged|(3fgaedcAAB|=cABdcAed|cAGED2|.abc